X: 127
T: Xiangsi ling
%%abc-version 2.0
%%abcx-abcm2ps-target-version 5.9.1 (29 Sep 2008)
%%abc-creator hum2abc beta
%%abcx-conversion-date 2013/10/02 07:52:29
%%abc-edited-by Helmut Schaffrath
%%humdrum-veritas 1782169483
%%humdrum-veritas-data 2067788674
%%continueall 1
%%barnumbers 0
L: 1/8
M: 2/4
K: D
z e d c [I:setbarnb 1]| 
B A/ F/ B E | 
z d c B | 
A G/ F/ E F | 
A2A2 | 
d c B A | 
D> C B, D | 
E2z2 | 
E2A2 | 
G2F E | 
D2C B, | 
E4 | 
d c B A | 
d G F E | 
A2z2 |]  



